dist/img/h-call.svg

<svg width="24" height="23" viewBox="0 0 24 23" fill="none" xmlns="http://www.w3.org/2000/svg">
<path d="M7.86082 1.66138C6.595 0.600528 4.70899 0.753017 3.74855 2.09663C3.49203 2.45551 3.18804 2.88356 2.66298 3.54035C0.856771 5.79973 0.856778 9.07123 2.67296 11.3226C4.0137 12.9846 5.41944 14.6616 6.99089 16.2331C8.56234 17.8046 10.2394 19.2103 11.9014 20.5511C14.1527 22.3673 17.4243 22.3673 19.6837 20.5611C20.3844 20.0008 20.8214 19.6955 21.1926 19.4306C22.4906 18.5037 22.6724 16.6856 21.6589 15.4541C20.8582 14.481 19.9664 13.5526 19.1061 12.6464C18.4208 11.9245 17.2764 11.8773 16.4986 12.4984C16.2894 12.6655 16.0297 12.8857 15.503 13.3794C12.9186 11.8437 11.3523 10.2583 9.84458 7.72096C10.3443 7.18793 10.5647 6.92745 10.7332 6.71623C11.3532 5.93907 11.3072 4.79758 10.581 4.11851C9.69601 3.29089 8.79528 2.44451 7.86082 1.66138Z" stroke="#7E7E7E" stroke-width="1.5" stroke-linecap="round" stroke-linejoin="round"/>
</svg>

<svg width="24" height="23" fill="none" xmlns="http://www.w3.org/2000/svg"><path d="M7.86 1.661C6.596.601 4.71.753 3.75 2.097c-.257.359-.561.787-1.086 1.443-1.806 2.26-1.806 5.531.01 7.783 1.34 1.662 2.746 3.339 4.318 4.91 1.571 1.572 3.248 2.977 4.91 4.318 2.252 1.816 5.523 1.816 7.783.01.7-.56 1.137-.866 1.509-1.13 1.298-.927 1.48-2.745.466-3.977-.8-.973-1.693-1.901-2.553-2.808-.685-.722-1.83-.769-2.607-.148-.21.168-.47.388-.996.881-2.584-1.535-4.15-3.12-5.658-5.658.5-.533.72-.794.888-1.005.62-.777.574-1.918-.152-2.597-.885-.828-1.786-1.674-2.72-2.458z" stroke="#7E7E7E" stroke-width="1.5" stroke-linecap="round" stroke-linejoin="round"/></svg>
